app/assets/icons/info_o.svg

<svg version="1.1" xmlns="http://www.w3.org/2000/svg" width="24" height="24" viewBox="0 0 24 24">
    <path d="M11.016 9v-2.016h1.969v2.016h-1.969zM12 20.016c4.406 0 8.016-3.609 8.016-8.016s-3.609-8.016-8.016-8.016-8.016 3.609-8.016 8.016 3.609 8.016 8.016 8.016zM12 2.016c5.531 0 9.984 4.453 9.984 9.984s-4.453 9.984-9.984 9.984-9.984-4.453-9.984-9.984 4.453-9.984 9.984-9.984zM11.016 17.016v-6h1.969v6h-1.969z"></path>
</svg>

<svg xmlns="http://www.w3.org/2000/svg" viewBox="0 0 24 24"><path d="M11.016 9V6.984h1.969V9h-1.969zM12 20.016c4.406 0 8.016-3.609 8.016-8.016S16.407 3.984 12 3.984 3.984 7.593 3.984 12 7.593 20.016 12 20.016zm0-18c5.531 0 9.984 4.453 9.984 9.984S17.531 21.984 12 21.984 2.016 17.531 2.016 12 6.469 2.016 12 2.016zm-.984 15v-6h1.969v6h-1.969z"/></svg>
